X:1
T:Title
%%score ( 1 2 ) { 3 | 4 }
L:1/8
Q:1/4=145
M:3/4
K:Bb
V:1 treble nm="Grand Piano, Soprano"
V:2 treble 
V:3 bass nm="Choir Pad, Wonnberger, 87.88.88.7"
V:4 bass 
V:1
 F2 [DB]4 | [Fc]2 [Fd]4 | [Ge]2 [Fd]4 | [Ec]2 [DB]4 | [Fd]2 [Fc]4 | [FA]2 c2 B2 | [=EG]2 [EG]4- | %7
w: By~C.~Wonnberger,~probably~late~19th~Century *|||||||
 [EG]2 F4 | F2 [DB]4 | [Fc]2 [Fd]4 | [Ge]2 [Fd]4 | [Ec]2 [DB]4 | [Fd]2 [Fc]4 | [FA]2 c2 B2 | %14
w: |||||||
 [=EG]2 [EG]4- | [EG]2 F4 | B2 B4 | B2 B2 [Ac]2 | [_Ad]2 [Ge]4 | [GB]2 [EG]4 | [=Ec]2 [_Ec]4 | %21
w: |||||||
 [EF]2 [DB]4 | [GB]2 [^FA]4 | [^FA]2 [EG]4 | [EG]2 [DF]4 | [FB]2 [FA]4 | [Fc]2 [Fc]4- | %27
w: ||||||
 [Fc]2 [FB]4- | [FB]6- | [FB]2 z2 z2 |] %30
w: |||
V:2
 x6 | x6 | x6 | x6 | x6 | z2 =E4 | x6 | x6 | x6 | x6 | x6 | x6 | x6 | z2 =E4 | x6 | x6 | x6 | x6 | %18
 x6 | x6 | x6 | x6 | x6 | x6 | x6 | x6 | x6 | x6 | x6 | x6 |] %30
V:3
 F,2 F,4 | A,2 B,4 | B,2 B,4 | A,2 B,4 | B,2 A,4 | C2 G,4 | B,2 B,4- | B,2 A,4 | F,2 F,4 | %9
 A,2 B,4 | B,2 B,4 | A,2 B,4 | B,2 A,4 | C2 G,4 | B,2 B,4- | B,2 A,4 | B,2 B,4 | B,2 B,4 | %18
 B,2 B,4 | E2 B,4 | B,2 A,4 | A,2 B,4 | D2 C4 | C2 B,4 | B,2 B,4 | D2 C4 | E2 D4- | D2 D4- | D6- | %29
 D2 z2 z2 |] %30
V:4
 z2 B,,4 | F,2 z2 z2 | E,2 F,4 | F,2 B,,4 | B,,2 C,4 | C,2 C,4 | C,2 C,4- | C,2 F,4 | z2 B,,4 | %9
 F,2 z2 z2 | E,2 F,4 | F,2 B,,4 | B,,2 C,4 | C,2 C,4 | C,2 C,4- | C,2 F,4 | z6 | z6 | z2 E,4 | %19
 E,2 E,4 | C,2 F,4 | F,2 B,,4 | G,,2 D,4 | D,2 E,4 | E,2 F,4 | F,2 F,4 | [F,A,]2 [F,A,]4- | %27
 [F,A,]2 [B,,B,]4- | [B,,B,]6- | [B,,B,]2 z2 z2 |] %30

